X:1
T:Farley Castle, 10.10.10.10
T:Farley Castle, 10.10.10.10
T:Henry Lawes, 1637-8
T:Public Domain Courtesy of the Cyber Hymnal™
C:Henry Lawes, 1637-8
Z:Public Domain
Z:Courtesy of the Cyber Hymnal™
%%score ( 1 2 ) ( 3 4 )
L:1/8
Q:1/4=115
M:none
K:D
V:1 treble 
V:2 treble 
V:3 bass 
V:4 bass 
V:1
|: [A,D]4 [DF]2 [DG]2 | [EA]2 [DF]2 [DG]2 [DA]2 | [GB]2 [Gc]2 [Fd]4 | [Fd]4 [Fc]2 [DB]2 | %4
 [Fd]2 [DA]2 [DB]2 [DF]2 | [EA]2 ^G2 [CA]4 | [EA]4 [DF]2 [DB]2 | [DA]2 [EG]2 [A,F]2 [DG]2 | %8
 [DA]2 D2 [CE]4 | [CE]4 [EA]2 [DF]2 | [DG]2 [GB]2 A2 z x3 | %11
 [Ad]2 [Ac]2 !fermata![Fd]4"^Play 3 times" :| [EA]4 [DF]2 [DB]2 | [DA]2 [EG]2 [A,F]2 [DG]2 | %14
 [DA]2 D2 [CE]4 | [CE]4 [EA]2 [DF]2 | [DG]2 [GB]2 A2 z x3 | [Ad]2 [Ac]2 [Fd]4 |] %18
V:2
|: x8 | x8 | x8 | x8 | x8 | x2 (ED) x4 | x8 | x8 | x2 D2 x4 | x8 | x4 F3 (d2 G) | x8 :| x8 | x8 | %14
 x2 D2 x4 | x8 | x4 F3 (d2 G) | x8 |] %18
V:3
|: [D,F,]4 [D,A,]2 [B,,B,]2 | [A,,C]2 [D,A,]2 [G,B,]2 [F,A,]2 | [E,G,]2 [E,G,]2 [D,A,]4 | %3
 [B,D]4 [F,A,]2 [G,B,]2 | [D,A,]2 [F,D]2 G,2 [D,A,]2 | [C,C]2 [E,B,]2 [A,,A,]4 | %6
 [C,A,]4 [D,A,]2 G,2 | [F,A,]2 (B,C) [D,D]2 [B,,D]2 | [F,,A,]2 [B,,^G,]2 [A,,A,]4 | %9
 [A,,A,]4 [C,A,]2 [D,A,]2 | [G,B,]2 [E,E]2 [F,C]2 [B,D]2 x2 | %11
 [A,E]2 [A,E]2 !fermata![D,D]4"^Play 3 times" :| [C,A,]4 [D,A,]2 G,2 | %13
 [F,A,]2 (B,C) [D,D]2 [B,,D]2 | [F,,A,]2 [B,,^G,]2 [A,,A,]4 | [A,,A,]4 [C,A,]2 [D,A,]2 | %16
 [G,B,]2 [E,E]2 [F,C]2 [B,D]2 x2 | [A,E]2 [A,E]2 [D,D]4 |] %18
V:4
|: x8 | x8 | x8 | x8 | x4 G,2 x2 | x8 | x6 G,2 | x2 E,2 x4 | x8 | x8 | x10 | x8 :| x6 G,2 | %13
 x2 E,2 x4 | x8 | x8 | x10 | x8 |] %18

